src/icons/circleci.svg

<svg width="300" height="300" viewBox="0 0 300 300" fill="none" xmlns="http://www.w3.org/2000/svg">
<path d="M150 180.221C166.691 180.221 180.221 166.691 180.221 150C180.221 133.309 166.691 119.779 150 119.779C133.309 119.779 119.779 133.309 119.779 150C119.779 166.691 133.309 180.221 150 180.221Z" fill="#343434"/>
<path d="M148.1 23.078C88.965 23.078 39.28 63.534 25.18 118.271C25.047 118.763 24.9754 119.27 24.967 119.78C24.9673 121.383 25.6041 122.92 26.7375 124.053C27.871 125.187 29.4081 125.824 31.011 125.824H82.183C84.622 125.824 86.703 124.376 87.658 122.292C87.658 122.292 87.736 122.148 87.76 122.079C98.31 99.313 121.351 83.517 148.088 83.517C184.805 83.517 214.571 113.279 214.571 150C214.571 186.721 184.813 216.483 148.096 216.483C121.358 216.483 98.321 200.683 87.768 177.921C87.74 177.848 87.666 177.708 87.666 177.708C87.1882 176.656 86.4181 175.764 85.4473 175.138C84.4766 174.512 83.3462 174.178 82.191 174.176H31.01C30.2162 174.176 29.4302 174.332 28.6968 174.636C27.9633 174.939 27.297 175.384 26.7357 175.946C26.1744 176.507 25.7292 177.173 25.4255 177.907C25.1219 178.64 24.9657 179.426 24.966 180.22C24.966 180.742 25.054 181.248 25.179 181.73C39.276 236.467 88.961 276.922 148.099 276.922C218.196 276.922 275.019 220.093 275.019 150.002C275.019 79.909 218.194 23.082 148.099 23.082L148.1 23.078Z" fill="#343434"/>
</svg>

<svg xmlns="http://www.w3.org/2000/svg" viewBox="0 0 300 300"><circle cx="150" cy="150" r="30.221" style="fill:#fafafa;stroke-width:4.0451"/><path d="M148.1 23.078c-59.135 0-108.82 40.456-122.92 95.193a6.176 6.176 0 0 0-.213 1.509 6.045 6.045 0 0 0 6.044 6.044h51.172c2.439 0 4.52-1.448 5.475-3.532 0 0 .078-.144.102-.213 10.55-22.766 33.591-38.562 60.328-38.562 36.717 0 66.483 29.762 66.483 66.483 0 36.721-29.758 66.483-66.475 66.483-26.738 0-49.775-15.8-60.328-38.562-.028-.073-.102-.213-.102-.213a6.023 6.023 0 0 0-5.475-3.532H31.01a6.042 6.042 0 0 0-6.044 6.044c0 .522.088 1.028.213 1.51 14.097 54.737 63.782 95.192 122.92 95.192 70.097 0 126.92-56.829 126.92-126.92 0-70.093-56.825-126.92-126.92-126.92z" style="fill:#fafafa;stroke-width:4.0451"/></svg>
